icons/wheelchair.svg

<?xml version="1.0" standalone="no"?><!-- Generator: Gravit.io --><svg xmlns="http://www.w3.org/2000/svg" xmlns:xlink="http://www.w3.org/1999/xlink" width="96" height="96"><path d=" M 55.25000000000001 69.05269007026914 C 55.85 68.15269007026913 56.650000000000006 67.45269007026914 57.75000000000001 67.15269007026913 C 58.75000000000001 66.85269007026915 59.85 67.05269007026914 60.75000000000001 67.55269007026914 C 61.650000000000006 68.15269007026913 62.35 68.95269007026914 62.650000000000006 70.05269007026914 C 62.85 71.05269007026914 62.75000000000001 72.15269007026913 62.25000000000001 73.05269007026914 C 58.45 79.45269007026914 52.35 84.15269007026913 45.25000000000001 86.05269007026914 C 45.050000000000004 86.15269007026913 44.85 86.15269007026913 44.650000000000006 86.15269007026913 L 38.45 87.05269007026914 C 38.35000000000001 87.05269007026914 38.150000000000006 87.05269007026914 37.95 87.05269007026914 C 25.350000000000005 87.05269007026914 14.150000000000004 78.45269007026914 10.950000000000005 66.25269007026913 C 10.850000000000005 66.15269007026913 10.850000000000005 65.95269007026914 10.850000000000005 65.75269007026913 L 9.950000000000005 59.552690070269136 C 9.950000000000005 59.352690070269134 9.950000000000005 59.25269007026913 9.950000000000005 59.052690070269136 C 9.950000000000005 46.352690070269134 18.550000000000004 35.25269007026913 30.750000000000004 31.952690070269135 C 31.750000000000004 31.752690070269132 32.85000000000001 31.852690070269134 33.75 32.352690070269134 C 34.650000000000006 32.952690070269135 35.35000000000001 33.75269007026913 35.650000000000006 34.852690070269134 C 35.85000000000001 35.852690070269134 35.75 36.952690070269135 35.25 37.852690070269134 C 34.650000000000006 38.75269007026913 33.85000000000001 39.452690070269135 32.75 39.75269007026913 C 24.150000000000006 42.052690070269136 18.050000000000004 49.852690070269134 17.950000000000003 58.75269007026913 L 18.750000000000004 64.45269007026914 C 21.150000000000006 72.95269007026914 28.850000000000005 78.95269007026914 37.75 79.05269007026914 L 43.35 78.25269007026913 C 48.35 76.85269007026915 52.650000000000006 73.55269007026914 55.25000000000001 69.05269007026914 Z  M 54.050000000000004 32.427071765979136 L 54.050000000000004 48.952690070269135 L 62.050000000000004 48.952690070269135 C 66.15 48.952690070269135 69.85 51.552690070269136 71.15 55.452690070269135 L 76.55000000000001 71.85269007026915 C 76.75 72.55269007026914 77.35 72.95269007026914 78.05000000000001 72.95269007026914 L 82.05000000000001 72.95269007026914 C 83.15 72.95269007026914 84.15 73.35269007026915 84.85 74.15269007026913 C 85.65 74.85269007026915 86.05000000000001 75.85269007026915 86.05000000000001 76.95269007026914 C 86.05000000000001 78.05269007026914 85.65 79.05269007026914 84.85 79.75269007026913 C 84.15 80.55269007026914 83.15 80.95269007026914 82.05000000000001 80.95269007026914 L 78.05000000000001 80.95269007026914 C 73.95 80.95269007026914 70.25 78.35269007026915 68.95 74.45269007026914 L 63.550000000000004 58.052690070269136 C 63.35 57.352690070269134 62.75000000000001 56.952690070269135 62.050000000000004 56.952690070269135 L 54.050000000000004 56.952690070269135 C 51.95 56.952690070269135 49.85 56.15269007026914 48.35 54.65269007026914 C 46.85 53.15269007026914 46.050000000000004 51.052690070269136 46.050000000000004 48.952690070269135 L 46.050000000000004 32.204784561009134 C 44.45767140131381 31.631247158292176 42.98795434297835 30.736820311378857 41.75 29.552690070269136 C 39.45 27.252690070269136 38.050000000000004 24.152690070269134 38.050000000000004 20.952690070269135 L 38.050000000000004 20.952690070269135 C 38.050000000000004 17.752690070269136 39.45 14.652690070269134 41.75 12.352690070269135 C 44.150000000000006 10.152690070269134 47.25000000000001 8.852690070269135 50.45 8.952690070269135 C 53.650000000000006 8.952690070269135 56.75000000000001 10.152690070269134 59.050000000000004 12.352690070269135 C 61.35 14.652690070269134 62.650000000000006 17.752690070269136 62.75000000000001 20.952690070269135 C 62.650000000000006 24.152690070269134 61.35 27.252690070269136 59.050000000000004 29.552690070269136 C 57.63842843696023 30.902888956655005 55.92552843874729 31.87642729907442 54.050000000000004 32.427071765979136 Z  M 46.050000000000004 20.952690070269135 C 46.050000000000004 19.852690070269134 46.550000000000004 18.852690070269134 47.35 18.052690070269136 C 48.150000000000006 17.352690070269134 49.25000000000001 16.952690070269135 50.35 16.952690070269135 C 51.550000000000004 16.952690070269135 52.550000000000004 17.352690070269134 53.35 18.052690070269136 C 54.25000000000001 18.852690070269134 54.650000000000006 19.852690070269134 54.75000000000001 20.952690070269135 C 54.650000000000006 22.052690070269136 54.25000000000001 23.052690070269136 53.35 23.852690070269134 C 52.550000000000004 24.552690070269136 51.550000000000004 24.952690070269135 50.35 24.952690070269135 C 49.25000000000001 24.952690070269135 48.25000000000001 24.552690070269136 47.35 23.852690070269134 C 46.550000000000004 23.052690070269136 46.050000000000004 22.052690070269136 46.050000000000004 20.952690070269135 L 46.050000000000004 20.952690070269135 Z " fill-rule="evenodd" fill="#454545" stroke="none"/><mask id="_mask_96OfVE2M0T8iKJgXn9k1PP9v2jCvaEum"><path d=" M 55.25000000000001 69.05269007026914 C 55.85 68.15269007026913 56.650000000000006 67.45269007026914 57.75000000000001 67.15269007026913 C 58.75000000000001 66.85269007026915 59.85 67.05269007026914 60.75000000000001 67.55269007026914 C 61.650000000000006 68.15269007026913 62.35 68.95269007026914 62.650000000000006 70.05269007026914 C 62.85 71.05269007026914 62.75000000000001 72.15269007026913 62.25000000000001 73.05269007026914 C 58.45 79.45269007026914 52.35 84.15269007026913 45.25000000000001 86.05269007026914 C 45.050000000000004 86.15269007026913 44.85 86.15269007026913 44.650000000000006 86.15269007026913 L 38.45 87.05269007026914 C 38.35000000000001 87.05269007026914 38.150000000000006 87.05269007026914 37.95 87.05269007026914 C 25.350000000000005 87.05269007026914 14.150000000000004 78.45269007026914 10.950000000000005 66.25269007026913 C 10.850000000000005 66.15269007026913 10.850000000000005 65.95269007026914 10.850000000000005 65.75269007026913 L 9.950000000000005 59.552690070269136 C 9.950000000000005 59.352690070269134 9.950000000000005 59.25269007026913 9.950000000000005 59.052690070269136 C 9.950000000000005 46.352690070269134 18.550000000000004 35.25269007026913 30.750000000000004 31.952690070269135 C 31.750000000000004 31.752690070269132 32.85000000000001 31.852690070269134 33.75 32.352690070269134 C 34.650000000000006 32.952690070269135 35.35000000000001 33.75269007026913 35.650000000000006 34.852690070269134 C 35.85000000000001 35.852690070269134 35.75 36.952690070269135 35.25 37.852690070269134 C 34.650000000000006 38.75269007026913 33.85000000000001 39.452690070269135 32.75 39.75269007026913 C 24.150000000000006 42.052690070269136 18.050000000000004 49.852690070269134 17.950000000000003 58.75269007026913 L 18.750000000000004 64.45269007026914 C 21.150000000000006 72.95269007026914 28.850000000000005 78.95269007026914 37.75 79.05269007026914 L 43.35 78.25269007026913 C 48.35 76.85269007026915 52.650000000000006 73.55269007026914 55.25000000000001 69.05269007026914 Z  M 54.050000000000004 32.427071765979136 L 54.050000000000004 48.952690070269135 L 62.050000000000004 48.952690070269135 C 66.15 48.952690070269135 69.85 51.552690070269136 71.15 55.452690070269135 L 76.55000000000001 71.85269007026915 C 76.75 72.55269007026914 77.35 72.95269007026914 78.05000000000001 72.95269007026914 L 82.05000000000001 72.95269007026914 C 83.15 72.95269007026914 84.15 73.35269007026915 84.85 74.15269007026913 C 85.65 74.85269007026915 86.05000000000001 75.85269007026915 86.05000000000001 76.95269007026914 C 86.05000000000001 78.05269007026914 85.65 79.05269007026914 84.85 79.75269007026913 C 84.15 80.55269007026914 83.15 80.95269007026914 82.05000000000001 80.95269007026914 L 78.05000000000001 80.95269007026914 C 73.95 80.95269007026914 70.25 78.35269007026915 68.95 74.45269007026914 L 63.550000000000004 58.052690070269136 C 63.35 57.352690070269134 62.75000000000001 56.952690070269135 62.050000000000004 56.952690070269135 L 54.050000000000004 56.952690070269135 C 51.95 56.952690070269135 49.85 56.15269007026914 48.35 54.65269007026914 C 46.85 53.15269007026914 46.050000000000004 51.052690070269136 46.050000000000004 48.952690070269135 L 46.050000000000004 32.204784561009134 C 44.45767140131381 31.631247158292176 42.98795434297835 30.736820311378857 41.75 29.552690070269136 C 39.45 27.252690070269136 38.050000000000004 24.152690070269134 38.050000000000004 20.952690070269135 L 38.050000000000004 20.952690070269135 C 38.050000000000004 17.752690070269136 39.45 14.652690070269134 41.75 12.352690070269135 C 44.150000000000006 10.152690070269134 47.25000000000001 8.852690070269135 50.45 8.952690070269135 C 53.650000000000006 8.952690070269135 56.75000000000001 10.152690070269134 59.050000000000004 12.352690070269135 C 61.35 14.652690070269134 62.650000000000006 17.752690070269136 62.75000000000001 20.952690070269135 C 62.650000000000006 24.152690070269134 61.35 27.252690070269136 59.050000000000004 29.552690070269136 C 57.63842843696023 30.902888956655005 55.92552843874729 31.87642729907442 54.050000000000004 32.427071765979136 Z  M 46.050000000000004 20.952690070269135 C 46.050000000000004 19.852690070269134 46.550000000000004 18.852690070269134 47.35 18.052690070269136 C 48.150000000000006 17.352690070269134 49.25000000000001 16.952690070269135 50.35 16.952690070269135 C 51.550000000000004 16.952690070269135 52.550000000000004 17.352690070269134 53.35 18.052690070269136 C 54.25000000000001 18.852690070269134 54.650000000000006 19.852690070269134 54.75000000000001 20.952690070269135 C 54.650000000000006 22.052690070269136 54.25000000000001 23.052690070269136 53.35 23.852690070269134 C 52.550000000000004 24.552690070269136 51.550000000000004 24.952690070269135 50.35 24.952690070269135 C 49.25000000000001 24.952690070269135 48.25000000000001 24.552690070269136 47.35 23.852690070269134 C 46.550000000000004 23.052690070269136 46.050000000000004 22.052690070269136 46.050000000000004 20.952690070269135 L 46.050000000000004 20.952690070269135 Z " fill-rule="evenodd" fill="white" stroke="none"/></mask><path d=" M 55.25000000000001 69.05269007026914 C 55.85 68.15269007026913 56.650000000000006 67.45269007026914 57.75000000000001 67.15269007026913 C 58.75000000000001 66.85269007026915 59.85 67.05269007026914 60.75000000000001 67.55269007026914 C 61.650000000000006 68.15269007026913 62.35 68.95269007026914 62.650000000000006 70.05269007026914 C 62.85 71.05269007026914 62.75000000000001 72.15269007026913 62.25000000000001 73.05269007026914 C 58.45 79.45269007026914 52.35 84.15269007026913 45.25000000000001 86.05269007026914 C 45.050000000000004 86.15269007026913 44.85 86.15269007026913 44.650000000000006 86.15269007026913 L 38.45 87.05269007026914 C 38.35000000000001 87.05269007026914 38.150000000000006 87.05269007026914 37.95 87.05269007026914 C 25.350000000000005 87.05269007026914 14.150000000000004 78.45269007026914 10.950000000000005 66.25269007026913 C 10.850000000000005 66.15269007026913 10.850000000000005 65.95269007026914 10.850000000000005 65.75269007026913 L 9.950000000000005 59.552690070269136 C 9.950000000000005 59.352690070269134 9.950000000000005 59.25269007026913 9.950000000000005 59.052690070269136 C 9.950000000000005 46.352690070269134 18.550000000000004 35.25269007026913 30.750000000000004 31.952690070269135 C 31.750000000000004 31.752690070269132 32.85000000000001 31.852690070269134 33.75 32.352690070269134 C 34.650000000000006 32.952690070269135 35.35000000000001 33.75269007026913 35.650000000000006 34.852690070269134 C 35.85000000000001 35.852690070269134 35.75 36.952690070269135 35.25 37.852690070269134 C 34.650000000000006 38.75269007026913 33.85000000000001 39.452690070269135 32.75 39.75269007026913 C 24.150000000000006 42.052690070269136 18.050000000000004 49.852690070269134 17.950000000000003 58.75269007026913 L 18.750000000000004 64.45269007026914 C 21.150000000000006 72.95269007026914 28.850000000000005 78.95269007026914 37.75 79.05269007026914 L 43.35 78.25269007026913 C 48.35 76.85269007026915 52.650000000000006 73.55269007026914 55.25000000000001 69.05269007026914 Z  M 54.050000000000004 32.427071765979136 L 54.050000000000004 48.952690070269135 L 62.050000000000004 48.952690070269135 C 66.15 48.952690070269135 69.85 51.552690070269136 71.15 55.452690070269135 L 76.55000000000001 71.85269007026915 C 76.75 72.55269007026914 77.35 72.95269007026914 78.05000000000001 72.95269007026914 L 82.05000000000001 72.95269007026914 C 83.15 72.95269007026914 84.15 73.35269007026915 84.85 74.15269007026913 C 85.65 74.85269007026915 86.05000000000001 75.85269007026915 86.05000000000001 76.95269007026914 C 86.05000000000001 78.05269007026914 85.65 79.05269007026914 84.85 79.75269007026913 C 84.15 80.55269007026914 83.15 80.95269007026914 82.05000000000001 80.95269007026914 L 78.05000000000001 80.95269007026914 C 73.95 80.95269007026914 70.25 78.35269007026915 68.95 74.45269007026914 L 63.550000000000004 58.052690070269136 C 63.35 57.352690070269134 62.75000000000001 56.952690070269135 62.050000000000004 56.952690070269135 L 54.050000000000004 56.952690070269135 C 51.95 56.952690070269135 49.85 56.15269007026914 48.35 54.65269007026914 C 46.85 53.15269007026914 46.050000000000004 51.052690070269136 46.050000000000004 48.952690070269135 L 46.050000000000004 32.204784561009134 C 44.45767140131381 31.631247158292176 42.98795434297835 30.736820311378857 41.75 29.552690070269136 C 39.45 27.252690070269136 38.050000000000004 24.152690070269134 38.050000000000004 20.952690070269135 L 38.050000000000004 20.952690070269135 C 38.050000000000004 17.752690070269136 39.45 14.652690070269134 41.75 12.352690070269135 C 44.150000000000006 10.152690070269134 47.25000000000001 8.852690070269135 50.45 8.952690070269135 C 53.650000000000006 8.952690070269135 56.75000000000001 10.152690070269134 59.050000000000004 12.352690070269135 C 61.35 14.652690070269134 62.650000000000006 17.752690070269136 62.75000000000001 20.952690070269135 C 62.650000000000006 24.152690070269134 61.35 27.252690070269136 59.050000000000004 29.552690070269136 C 57.63842843696023 30.902888956655005 55.92552843874729 31.87642729907442 54.050000000000004 32.427071765979136 Z  M 46.050000000000004 20.952690070269135 C 46.050000000000004 19.852690070269134 46.550000000000004 18.852690070269134 47.35 18.052690070269136 C 48.150000000000006 17.352690070269134 49.25000000000001 16.952690070269135 50.35 16.952690070269135 C 51.550000000000004 16.952690070269135 52.550000000000004 17.352690070269134 53.35 18.052690070269136 C 54.25000000000001 18.852690070269134 54.650000000000006 19.852690070269134 54.75000000000001 20.952690070269135 C 54.650000000000006 22.052690070269136 54.25000000000001 23.052690070269136 53.35 23.852690070269134 C 52.550000000000004 24.552690070269136 51.550000000000004 24.952690070269135 50.35 24.952690070269135 C 49.25000000000001 24.952690070269135 48.25000000000001 24.552690070269136 47.35 23.852690070269134 C 46.550000000000004 23.052690070269136 46.050000000000004 22.052690070269136 46.050000000000004 20.952690070269135 L 46.050000000000004 20.952690070269135 Z " fill-rule="evenodd" fill="none" stroke="none" stroke-width="16" mask="url(#_mask_96OfVE2M0T8iKJgXn9k1PP9v2jCvaEum)"/></svg>

<svg xmlns="http://www.w3.org/2000/svg" width="96" height="96"><path d="M55.25 69.053c.6-.9 1.4-1.6 2.5-1.9 1-.3 2.1-.1 3 .4.9.6 1.6 1.4 1.9 2.5.2 1 .1 2.1-.4 3-3.8 6.4-9.9 11.1-17 13-.2.1-.4.1-.6.1l-6.2.9h-.5c-12.6 0-23.8-8.6-27-20.8-.1-.1-.1-.3-.1-.5l-.9-6.2v-.5c0-12.7 8.6-23.8 20.8-27.1 1-.2 2.1-.1 3 .4.9.6 1.6 1.4 1.9 2.5.2 1 .1 2.1-.4 3-.6.9-1.4 1.6-2.5 1.9-8.6 2.3-14.7 10.1-14.8 19l.8 5.7c2.4 8.5 10.1 14.5 19 14.6l5.6-.8c5-1.4 9.3-4.7 11.9-9.2zm-1.2-36.626v16.526h8c4.1 0 7.8 2.6 9.1 6.5l5.4 16.4c.2.7.8 1.1 1.5 1.1h4c1.1 0 2.1.4 2.8 1.2.8.7 1.2 1.7 1.2 2.8 0 1.1-.4 2.1-1.2 2.8-.7.8-1.7 1.2-2.8 1.2h-4c-4.1 0-7.8-2.6-9.1-6.5l-5.4-16.4c-.2-.7-.8-1.1-1.5-1.1h-8c-2.1 0-4.2-.8-5.7-2.3-1.5-1.5-2.3-3.6-2.3-5.7V32.205a12.188 12.188 0 0 1-4.3-2.652c-2.3-2.3-3.7-5.4-3.7-8.6 0-3.2 1.4-6.3 3.7-8.6 2.4-2.2 5.5-3.5 8.7-3.4 3.2 0 6.3 1.2 8.6 3.4 2.3 2.3 3.6 5.4 3.7 8.6-.1 3.2-1.4 6.3-3.7 8.6a12.167 12.167 0 0 1-5 2.874zm-8-11.474c0-1.1.5-2.1 1.3-2.9.8-.7 1.9-1.1 3-1.1 1.2 0 2.2.4 3 1.1.9.8 1.3 1.8 1.4 2.9-.1 1.1-.5 2.1-1.4 2.9-.8.7-1.8 1.1-3 1.1-1.1 0-2.1-.4-3-1.1-.8-.8-1.3-1.8-1.3-2.9z" fill-rule="evenodd" fill="#454545"/></svg>
